svg-icons/octicons/database.svg

<svg xmlns="http://www.w3.org/2000/svg" viewBox="0 0 12 16"><path d="M6 15c-3.31 0-6-.9-6-2v-2c0-.17.09-.34.21-.5.67.86 3 1.5 5.79 1.5s5.12-.64 5.79-1.5c.13.16.21.33.21.5v2c0 1.1-2.69 2-6 2zm0-4c-3.31 0-6-.9-6-2V7c0-.11.04-.21.09-.31.03-.06.07-.13.12-.19C.88 7.36 3.21 8 6 8s5.12-.64 5.79-1.5c.05.06.09.13.12.19.05.1.09.21.09.31v2c0 1.1-2.69 2-6 2zm0-4c-3.31 0-6-.9-6-2V3c0-1.1 2.69-2 6-2s6 .9 6 2v2c0 1.1-2.69 2-6 2zm0-5c-2.21 0-4 .45-4 1s1.79 1 4 1 4-.45 4-1-1.79-1-4-1z"/></svg>

<svg viewBox="0 0 12 16" xmlns="http://www.w3.org/2000/svg">
  <path d="M6 15C2.69 15 0 14.1 0 13c0-0.6 0-1.26 0-2 0-0.17 0.09-0.34 0.21-0.5C0.88 11.36 3.21 12 6 12s5.12-0.64 5.79-1.5c0.13 0.16 0.21 0.33 0.21 0.5 0 0.58 0 1.19 0 2C12 14.1 9.31 15 6 15zM6 11C2.69 11 0 10.1 0 9c0-0.6 0-1.26 0-2 0-0.11 0.04-0.21 0.09-0.31l0 0C0.12 6.63 0.16 6.56 0.21 6.5 0.88 7.36 3.21 8 6 8s5.12-0.64 5.79-1.5c0.05 0.06 0.09 0.13 0.12 0.19l0 0c0.05 0.1 0.09 0.21 0.09 0.31 0 0.58 0 1.19 0 2C12 10.1 9.31 11 6 11zM6 7C2.69 7 0 6.1 0 5c0-0.32 0-0.65 0-1 0-0.32 0-0.65 0-1C0 1.9 2.69 1 6 1c3.31 0 6 0.9 6 2 0 0.31 0 0.64 0 1 0 0.31 0 0.63 0 1C12 6.1 9.31 7 6 7zM6 2c-2.21 0-4 0.45-4 1s1.79 1 4 1 4-0.45 4-1S8.21 2 6 2z" />
</svg>
